svgs/sharp-solid/battery-bolt.svg

<svg xmlns="http://www.w3.org/2000/svg" viewBox="0 0 576 512"><!--! Font Awesome Pro 6.4.2 by @fontawesome - https://fontawesome.com License - https://fontawesome.com/license (Commercial License) Copyright 2023 Fonticons, Inc. --><path d="M64 352H189.5l-20 64H64 0V352 160 96H64 307.5l-84.3 64H64V352zm172.5 64l84.3-64H480V160H354.5l20-64H480h64v64 32h32V320H544v32 64H480 236.5zM208 400l40-128H160V248L336 112 296 240h88v24L208 400z"/></svg>

<svg xmlns="http://www.w3.org/2000/svg" viewBox="0 0 576 512"><!--! Font Awesome Pro 6.6.0 by @fontawesome - https://fontawesome.com License - https://fontawesome.com/license (Commercial License) Copyright 2024 Fonticons, Inc. --><path d="M64 352l125.5 0-20 64L64 416 0 416l0-64L0 160 0 96l64 0 243.5 0-84.3 64L64 160l0 192zm172.5 64l84.3-64L480 352l0-192-125.5 0 20-64L480 96l64 0 0 64 0 32 32 0 0 128-32 0 0 32 0 64-64 0-243.5 0zM208 400l40-128-88 0 0-24L336 112 296 240l88 0 0 24L208 400z"/></svg>
